X:1783
T:Eithne's Child
O:england
M:3/4
L:1/4
Q:60
C:Stephen P. McNally
R:Slow Air
K:D
|:e>Aa|e>d c/2A/2|B>A c/2A/2|e>c f/2d/2|c>Aa|e>d c/2A/2|B>A c/2B/2|1A3:|
2A2 A/2B/2|
|:c>BA|f>A e/2A/2|B>A c/2A/2|e>c f/2d/2|c>BA|f>A e/2A/2|B>A c/2B/2|A3:|


